svgs/thin/square-r.svg

<svg xmlns="http://www.w3.org/2000/svg" viewBox="0 0 448 512"><!-- Font Awesome Pro 6.0.0-alpha2 by @fontawesome - https://fontawesome.com License - https://fontawesome.com/license (Commercial License) --><path d="M384 32H64C28.654 32 0 60.654 0 96V416C0 451.346 28.654 480 64 480H384C419.346 480 448 451.346 448 416V96C448 60.654 419.346 32 384 32ZM432 416C432 442.467 410.467 464 384 464H64C37.533 464 16 442.467 16 416V96C16 69.533 37.533 48 64 48H384C410.467 48 432 69.533 432 96V416ZM336 208C336 163.891 300.125 128 256 128H136C131.594 128 128 131.578 128 136V376C128 380.422 131.594 384 136 384S144 380.422 144 376V288H244.24L321.844 381.125C323.438 383.016 325.719 384 328 384C329.812 384 331.625 383.391 333.125 382.141C336.531 379.312 336.969 374.266 334.156 370.875L264.387 287.152C304.525 282.895 336 249.238 336 208ZM256 272H144V144H256C291.281 144 320 172.703 320 208S291.281 272 256 272Z"/></svg>

<svg xmlns="http://www.w3.org/2000/svg" viewBox="0 0 448 512"><!--! Font Awesome Pro 6.3.0 by @fontawesome - https://fontawesome.com License - https://fontawesome.com/license (Commercial License) Copyright 2023 Fonticons, Inc. --><path d="M384 32H64C28.65 32 0 60.65 0 96v320c0 35.35 28.65 64 64 64h320c35.35 0 64-28.65 64-64V96C448 60.65 419.3 32 384 32zM432 416c0 26.47-21.53 48-48 48H64c-26.47 0-48-21.53-48-48V96c0-26.47 21.53-48 48-48h320c26.47 0 48 21.53 48 48V416zM336 208C336 163.9 300.1 128 256 128H136C131.6 128 128 131.6 128 136v240C128 380.4 131.6 384 136 384s8-3.578 8-8V288h100.2l77.6 93.13C323.4 383 325.7 384 328 384c1.812 0 3.625-.6094 5.125-1.859c3.406-2.828 3.844-7.875 1.031-11.27l-69.77-83.72C304.5 282.9 336 249.2 336 208zM256 272H144v-128H256c35.28 0 64 28.7 64 64S291.3 272 256 272z"/></svg>
